symbols/web/dry_cleaning/materialsymbolssharp/dry_cleaning_wght500grad200_40px.svg

<svg xmlns="http://www.w3.org/2000/svg" height="40" width="40"><path d="M11.25 37.25V26.958H4.167V19.5l14.041-5.792v-1.083q-1.5-.5-2.479-1.854-.979-1.354-.979-2.979 0-2.167 1.542-3.688 1.541-1.521 3.75-1.521 2.166 0 3.708 1.521 1.542 1.521 1.542 3.688H21.75q0-.709-.5-1.167-.5-.458-1.208-.458-.709 0-1.188.458t-.479 1.167q0 .708.5 1.229.5.521 1.208.521h1.792v4.125l13.958 5.875v7.416h-7.041V37.25Zm3.583-11.917h10.375Zm-7.041-1.958h3.458V21.75h17.542v1.625h3.416V22l-12.125-5.208L7.792 22Zm7.041 10.292h10.375v-8.334H14.833Z"/></svg>

<svg xmlns="http://www.w3.org/2000/svg" height="40" width="40"><path d="M11.25 37.25V26.958H4.167V19.5L18.208 13.708V12.625Q16.708 12.125 15.729 10.771Q14.75 9.417 14.75 7.792Q14.75 5.625 16.292 4.104Q17.833 2.583 20.042 2.583Q22.208 2.583 23.75 4.104Q25.292 5.625 25.292 7.792H21.75Q21.75 7.083 21.25 6.625Q20.75 6.167 20.042 6.167Q19.333 6.167 18.854 6.625Q18.375 7.083 18.375 7.792Q18.375 8.5 18.875 9.021Q19.375 9.542 20.083 9.542H21.875V13.667L35.833 19.542V26.958H28.792V37.25ZM14.833 25.333H25.208ZM7.792 23.375H11.25V21.75H28.792V23.375H32.208V22L20.083 16.792L7.792 22ZM14.833 33.667H25.208V25.333H14.833Z"/></svg>
